X: 29526
T: No Cash
R: hornpipe
M: 4/4
K: Adorian
|:"Am"e>AA>G A>Bc>e|"G"d>ed>B G>AB>g|"Am"e>AA>G A>Bc>e|"G"d>BG>A "Em"B>AA>G|
"Am"e>AA>G A>Bc>e|"G"d>ed>B G>AB>G|"F"A>Bc>d e>gf>a|"G"g>ed>B G>AB>G:|
"Am"e>aa>g e>aa>g|"Em"e>gg>a g>fe>d|"Am"e>aa>g e>aa>g|"Em"e>gg>f ~e2 e>d|
"Am"e>aa>g e>aa>g|"Em"e>gg>a g>fe>d|"Am"e>AA>G A>Bc>e|"G"d>BG>B "Am"A2 A>G:|

